dist/img/e.svg

<svg width="96" height="117" viewBox="0 0 96 117" fill="none" xmlns="http://www.w3.org/2000/svg">
<path d="M0.254944 -1.52588e-05H95.1931V32.2H41.967V43.88H85.348V72.244H41.967V84.424H95.1931V116.793H0.254944V-1.52588e-05Z" fill="#1D1D1B"/>
</svg>

<svg width="96" height="117" fill="none" xmlns="http://www.w3.org/2000/svg"><path d="M.255 0h94.938v32.2H41.967v11.68h43.381v28.364H41.967v12.18h53.226v32.369H.255V0z" fill="#1D1D1B"/></svg>
